X: 1994
T: Year of Jubilo
C:Henry Clay Work, 1862
B: australian traditional tunes wiki
M:2/4
L:1/8
R: Set Tune
Q: 1/4=100
K:D
V:1 
A|:"D"DF/F/ FA|Af f/e/d/B/|Ad dF|"A"E3F/E/|"D"DF/F/ FA|Af f/e/d/B/|"A"Ad e>c|1"D"d3A:|2"D"d3c||
|:"G"B>A Bc|"D"d>c dB|Ad dF|"A"E3F/E/|"D"DF/F/ FA|Af f/e/d/B/|"A"Ad e>c|1"D"d3c:|2"D"d3z||
% abcbook-tune_id 6342d5be0b60726e2634b0fc


% abcbook-boost 0
% abcbook-tablature 
% abcbook-transpose 
% abcbook-lastupdated 1665324493115
% abcbook-soundfonts 
% abcbook-repeats 1
% NFF Book 2016

